!!!COM: Scriabin, Alexander
!!!OTL@@FR: Impromptu en si majeur
!!!OTL@@EN: Impromptu in B Major
!!!OPR@@FR: 2 Impromptus
!!!OPR@@EN: 2 Impromptus
!!!OPS: 14
!!!ONM: 1
!!!ODT: 1895
!!!AGN: Impromptu
**kern	**kern	**dynam
*staff2	*staff1	*staff1/2
*Ipiano	*Ipiano	*
*clefF4	*clefG2	*
*k[f#c#g#d#a#]	*k[f#c#g#d#a#]	*
*B:	*B:	*
*M3/4	*M3/4	*
8r	8ff#	p
*clefG2	*	*
=1	=1	=1
*^	*	*
*	*^	*	*
4ryy	2.f#	4e 4cc#	8bbL	.
.	.	.	8aa#J	.
4ryy	.	4d# 4b	8ff#L	.
.	.	.	8ee#XJ	.
8d#\L	.	4b#X	12ff#L	.
.	.	.	12aan	.
8G#J	.	.	.	.
.	.	.	24r	.
.	.	.	24gg#Jk	.
*	*v	*v	*	*
=2	=2	=2	=2
2.c#	4ree	2ee	.
.	4e 4cc#	.	.
.	4g# 4bn	8r	.
.	.	8ee	.
*v	*v	*	*
=3	=3	=3
4e 4f# 4a#	8gg#L	.
.	8ff#J	.
4d# 4f#	8a#L	.
.	8bJ	.
8c#L 8g#	8eeL	.
8G#J 8b	16r	.
.	16dd#Jk	.
=4	=4	=4
*^	*^	*
2Gn	4ree	4ryy	4dd#	.
.	4e 4b	4ryy	4cc#	.
4ryy	8F# 8e 8a#	8ryy	8r	.
*clefF4	*clefF4	*	*	*
.	8E 8A#	8g#X	8cc#	< [
!!LO:LB:g=original
=5	=5	=5	=5	=5
4D# 4c#	4ryy	4f##X	8eeL	>
.	.	.	8dd#J	)
4B 4d#	4d#	4ryy	8f##L	)
.	.	.	8a#J	]
8r	4ryy	8ryy	8g#	.
8E 8A#	.	8g#	8cc#	< [
=6	=6	=6	=6	=6
4D# 4c#	4ryy	4f##X	8eeL	>
.	.	.	8dd#J	]
*	*	*v	*v	*
4B 4d#	4d#	8f##L	.
.	.	8g#J	.
4D# 4B 4g#	4ryy	12dd#L	<
.	.	12ff##X	(
.	.	12gg#J	(
*v	*v	*	*
=7	=7	=7
4BB	4.ccc#	[
4G# 4d# 4g#	.	.
.	8bb	.
4r	8dd#L	>
.	8ddnJ	)
=8	=8	=8
*^	*	*
4ryy	4C# 4B 4e#X	8aa#L	]
.	.	8ddn	.
2F#	4A# 4f#	8cc#	.
.	.	8ee#X	.
.	4c# 4a#	8gg#	.
.	.	8ff#J	.
*v	*v	*	*
*clefG2	*	*
=9	=9	=9
*^	*	*
*	*^	*	*
4ryy	2.f#	4e 4cc#	8bbL	.
.	.	.	8aa#J	.
4ryy	.	4d# 4b	8ff#L	.
.	.	.	8ee#XJ	.
8d#\L	.	4b#X	12ff#L	.
.	.	.	12aan	.
8G#J	.	.	.	.
.	.	.	24r	.
.	.	.	24gg#Jk	.
*	*v	*v	*	*
!!LO:LB:g=original
=10	=10	=10	=10
2.c#	4ree	2ee	.
.	4e 4cc#	.	.
.	4g# 4bn	8r	.
.	.	8ee	.
*v	*v	*	*
=11	=11	=11
4e 4f# 4a#	8gg#L	.
.	8ff#J	.
4d# 4f#	8a#L	.
.	8bJ	.
8c#L 8g#	8eeL	.
8G#J 8b	16r	.
.	16dd#Jk	.
=12	=12	=12
*^	*^	*
2Gn	4ree	4ryy	4dd#	.
.	4e 4b	4ryy	4cc#	.
4ryy	8F# 8e 8a#	8ryy	8r	.
*clefF4	*clefF4	*	*	*
.	8E 8A#	8g#X	8cc#	< [
=13	=13	=13	=13	=13
4D# 4c#	4ryy	4f##X	8eeL	>
.	.	.	8dd#J	)
4B 4d#	4d#	4ryy	8f##L	]
.	.	.	8a#J	.
8r	4ryy	8ryy	8g#	.
8G# 8c#	.	8b	8ee	< [
=14	=14	=14	=14	=14
4F# 4e	4ryy	4a#	8gg#L	>
.	.	.	8ff#J	)
*	*	*v	*v	*
4d# 4f#	4f#	8a#L	]
.	.	8bJ	.
4ryy	4r	8ee#XL	>
.	.	8ff#J	)
*v	*v	*	*
!!LO:LB:g=original
=15	=15	=15
4GG#	4.aa#	)
4En 4B 4en	.	] pp
.	8gg#	.
4r	8cc#L	.
.	8bJ	<
=16	=16	=16
4AA# 4G# 4c##X	8ff#L	[ >
.	8b	)
4D# 4F# 4d#	8a#	]
.	8cc##X	.
4r	8ee#X	.
.	8dd#J	.
=17	=17	=17
*^	*^	*
2.AA#	4rA	4re	8ree	.
.	.	.	8ff#L	.
.	2F# 2c#	2f#	8f#	<
.	.	.	8cc#	.
.	.	.	8ee#X	.
.	.	.	8dd#J	.
*v	*v	*	*	*
=18	=18	=18	=18
8r	4c# 4f#	4.cc#	.
8A#	.	.	.
8GG#L	4rc	.	.
8D#	.	8g#	.
8A#	4c#	8f#L	.
8G#J	.	8e#XJ	.
=19	=19	=19	=19
*^	*	*	*
4ryy	8.F#L	4c#	8.d#L	.
.	16d#Jk	.	16b#XJk	.
4ryy	4c#	4rc	4a#	>
[4GG#	4F#	4B#X	4g#	.
*	*	*v	*v	*
=20	=20	=20	=20
4GG#]	4E#X	4c#	.
4ryy	4GG#	4r	.
4ryy	4CC#	4r	.
!!LO:LB:g=original
=21	=21	=21	=21
*	*	*^	*
2.GG#	4rA	4re	8ree	.
.	.	.	8eeL	pp
.	2E 2B	2e	8e	.
.	.	.	8b	.
.	.	.	8dd#	.
.	.	.	8cc#J	.
*v	*v	*	*	*
=22	=22	=22	=22
8r	4B 4e	4.b	.
8G#L	.	.	.
8FF#	4rc	.	.
8C#	.	8f#	.
8G#	4B	8eL	.
8F#J	.	8d#J	.
=23	=23	=23	=23
8.EL	4B	8.c#L	.
16c#Jk	.	16a#Jk	.
4B	4rc	4g#	.
[4C#	4B [4e	[4g#	<
=24	=24	=24	=24
4FF# 4C#] 4F#	4A# 4e]	8g#L]	.
.	.	8f#	.
4r	4rc	8cc#	.
.	.	8ee#X	.
4r	4rc	8gg#	.
.	.	8ff#J	.
*	*v	*v	*
*clefG2	*	*
=25	=25	=25
*^	*	*
*	*^	*	*
4ryy	2.f#	4en 4cc#	8bbL	>
.	.	.	8aa#J	)
4ryy	.	4d# 4b	8ff#L	)
.	.	.	8ee#XJ	)
8d#\L	.	4b#X	12ff#L	)
.	.	.	12aan	)
8G#J	.	.	.	)
.	.	.	24r	)
.	.	.	24gg#Jk	)
*	*v	*v	*	*
=26	=26	=26	=26
2.c#	4ree	2ee	]
.	4e 4cc#	.	.
.	4g# 4b	8r	.
.	.	8ee	.
*v	*v	*	*
!!LO:LB:g=original
=27	=27	=27
4e 4f# 4a#	8gg#L	.
.	8ff#J	.
4d# 4f#	8a#L	.
.	8bJ	.
8c#L 8g#	8eeL	.
8G#J 8b	16r	.
.	16dd#Jk	.
=28	=28	=28
*^	*^	*
2Gn	4ree	4ryy	4dd#	.
.	4e 4b	4ryy	4cc#	.
4ryy	8F# 8e 8a#	8ryy	8r	.
*clefF4	*clefF4	*	*	*
.	8E 8A#	8g#X	8cc#	< [
*v	*v	*	*	*
=29	=29	=29	=29
*	*	*	*^
!	!	!	!	!LO:HP:b=1
4D# 4c#	4f##X	8eeL	.	>
.	.	8dd#J	.	)
!	!	!	!LO:HP:a=2	!
4B 4d#	4ryy	8f##L	<	)
.	.	8a#J	.	)
8r	8ryy	8g#	.	]
8An 8d#	8cc#	8ff#X	.	<
=30	=30	=30	=30	=30
4G# 4f#	4b#X	8aanL	.	[
.	.	8gg#J	.	>
*	*v	*v	*	*
4e 4g#	8b#L	.	)
.	8cc#J	.	]
4r	12gg#L	.	<
.	12bb#X	.	(
.	12ccc#J	.	[
*	*	*v	*v
=31	=31	=31
4E	4.fff#	mf
*clefG2	*	*
4c# 4bn 4gg#	.	.
.	8eee	.
4r	8gg#L	.
.	8ggnJ	.
=32	=32	=32
4F#	4.ddd#	.
4e 4b 4ggn	.	.
.	8ccc#	.
4e [4b	8ff#L	.
.	[8ee#XJ	.
!!LO:LB:g=original
=33	=33	=33
4dn 4g# 4b]	4.ee#] 4.bb	.
4F#	.	.
.	8aa#	.
4d 4g# [4b	8ee#XL	.
.	8gg#J	.
=34	=34	=34
*	*^	*
4c# 4en 4b]	4ryy	8cc#L	.
.	.	8ff#J	.
4F#	4ryy	8g#L	.
.	.	8eeJ	.
[4B [4g#	[4e	8eL	.
.	.	8dd#J	.
=35	=35	=35	=35
4B] 4g#]	4e]	4.cc#	.
*clefF4	*	*	*
4C#	4rc	.	.
.	.	8b	.
[4E [4B	[4c#	8c#L	.
.	.	8a#J	.
=36	=36	=36	=36
4E] 4B]	4c#]	4.g#	.
4GG#	4rc	.	.
.	.	[8f#	.
4CC#	4G# 4c#	8f#L]	.
.	.	8eJ	.
*	*clefF4	*	*
=37	=37	=37	=37
4FFF# [4FF#	4E [4F# 4A#	4c#	.
4BBB 4FF#]	8D# 8F#]	8BL	.
.	8rAA	[8f#J	.
4CC#	4G# 4c#	8f#L]	.
.	.	8eJ	.
=38	=38	=38	=38
*^	*	*	*
4FFF#	2FF#	4E [4F# 4A#	4c#	.
4BBB	.	4D# 4F#]	4B	.
4rCC	4AA#	4E 4F#	4c#	.
*v	*v	*	*	*
!!LO:LB:g=original
=39	=39	=39	=39
4AAn	4D# 4F# 4B	4ryy	.
4GG#	4D# 4F# 4B#X	8rf	.
.	.	[8f#	.
4CC#	4G# 4c#	8f#L]	.
.	.	8eJ	.
=40	=40	=40	=40
4FFF# [4FF#	4E [4F# 4A#X	4c#	.
4BBB 4FF#]	4D# 4F#]	4B	.
*	*v	*v	*
*	*clefG2	*
4CC# [4C#	4B [4e 4g#	.
=41	=41	=41
8FF# 8C#]	8A# 8e] 8f#	.
16r	16r	.
[16c# [16e	[16a# [16cc#/	.
4F# 4c#] 4e]	4a#] 4cc#] 4ff#	.
4CC# [4C#	4B [4e 4g#	.
=42	=42	=42
8FF# 8C#]	8A# 8e] 8f#	.
16r	16r	.
[16c# [16e	[16a# [16cc#/	.
4F# 4c#] 4e]	4a#] 4cc#] 4ff#	.
*	*clefF4	*
4AA#	4E 4F# 4c#	.
=43	=43	=43
*	*^	*
4AAn	4D# 4F# 4B	4ryy	.
4GG#	4D# 4B#X	8rf	.
.	.	[8f#	.
4GGn	[4E 4cn	8f#L]	.
.	.	8eJ	.
=44	=44	=44	=44
[4FF#	4E] 4A#X	4c#X	.
4BBB 4FF#]	4D#	4B	.
*	*v	*v	*
*	*clefG2	*
4GGG# [4GG#	4F# [4B 4d#	.
!!LO:LB:g=original
=45	=45	=45
8CC# 8GG#]	8E#X 8B] 8c#	.
16r	16r	.
[16G# [16B	[16e#X [16g#	.
4C# 4G#] 4B]	4e#] 4g#] 4cc#	.
4GGG# [4GG#	4F# [4B 4d#	.
=46	=46	=46
8CC# 8GG#]	8E#X 8B] 8c#	.
16r	16r	.
[16G# [16B	[16e#X [16g#	.
4C# 4G#] 4B]	4e#] 4g#] 4cc#	.
4CC# 4C#	4r	.
=47	=47	=47
8.CCC#L 8.CC#	8.r	f
16C#Jk 16c#	16cc#	<
4B 4e#X 4b	8aa#L	[
.	[8gg#J	>
4r	8gg#L]	]
.	8aa#J	.
=48	=48	=48
4DDD# 4DD#	8gg#L	.
.	8ff#	.
4BB 4F# 4B	8ee#X	.
.	8f#	.
4F# 4B 4f#	8dd#	.
.	8bJ	.
=49	=49	=49
8.EEE#XL 8.EE#X	8.r	.
16BB#XJk	16ff#	.
8.F#L 8.d#	8.a#L	.
[16E#XJk	16g##XJk	.
4E#] 4d#	8.dd#L	.
.	16cc#Jk	.
=50	=50	=50
4AAA# 4AA#	2a#	.
4E#X 4c#	.	<
4GGG# 4GG#	4r	[
!!LO:LB:g=original
=51	=51	=51
8.FFF#L 8.FF#	8.r	.
16EnJk 16en	16ff#	.
4A# 4e 4a#	8ddd#L	.
.	[8ccc#J	.
4r	8ccc#L]	.
.	8ddd#J	.
=52	=52	=52
4GGG# 4GG#	8ccc#L	.
.	8bb	.
4E 4B 4e	8aa#	.
.	8b	.
4B 4e 4b	8gg#	.
.	8eeJ	.
=53	=53	=53
8.AAA#L 8.AA#	8.r	.
16E#XJk	16bb	.
8.BL 8.g#	8.dd#L	.
[16A#Jk	16cc##XJk	.
4A#] 4g#	8.gg#L	.
.	16ff#Jk	.
=54	=54	=54
4AAn 4An	2.cc#X	.
4F# 4c# 4f#	.	.
4D# 4d#	.	.
=55	=55	=55
8.GG#L 8.G#	8.r	.
16D#Jk	16aan	.
8.AnL 8.f#	8.cc#L	.
[16G#Jk	16b#XJk	.
4G#] 4f#	8.ff#L	.
.	16eeJk	.
=56	=56	=56
4GGn 4Gn	2.bn	.
4E 4B 4e	.	.
4C# 4c#	.	.
!!LO:LB:g=original
=57	=57	=57
8.FF#L 8.F#	8.r	.
16C#Jk	16ggn	.
8.BL 8.e	8.bL	.
16EJk	16ff#Jk	.
4B 4e	4b	.
=58	=58	=58
8.FF#L 8.F#	8.r	.
16C#Jk	16ee	.
8.BL 8.e	8.gnL	.
16EJk	16dd#Jk	.
4B 4e	4g	.
=59	=59	=59
4FF# 4F#	8r	.
.	8dd#	.
4E 4A# 4e	8f#\L	.
.	8b#X	>
4r	8dd#	.
.	8cc#J	.
=60	=60	=60
2.r	8b#XL	p >
.	8cc#	)
.	8gg#	)
.	8ee#X	)
.	8gg#	)
.	8ff#J	]
*clefG2	*	*
=61	=61	=61
*^	*	*
*	*^	*	*
4ryy	2.f#	4en 4cc#	8bbnL	pp
.	.	.	8aa#J	.
4ryy	.	4d# 4b	8ff#L	.
.	.	.	8ee#XJ	.
8d#\L	.	4b#X	12ff#L	.
.	.	.	12aan	.
8G#J	.	.	.	.
.	.	.	24r	.
.	.	.	24gg#Jk	.
*	*v	*v	*	*
!!LO:LB:g=original
=62	=62	=62	=62
2.c#	4ree	2ee	.
.	4e 4cc#	.	.
.	4g# 4b	8r	.
.	.	8ee	.
*v	*v	*	*
=63	=63	=63
4e 4f# 4a#	8gg#L	.
.	8ff#	.
4d# 4f#	8a#	<
.	8b	.
8c#L 8g#	8ee	.
8G#J 8b	16r	.
.	16dd#Jk	.
=64	=64	=64
*^	*^	*
2Gn	4ree	4ryy	4dd#	.
.	4e 4b	4ryy	4cc#	.
4ryy	8F# 8e 8a#	8ryy	8r	.
*clefF4	*clefF4	*	*	*
.	8E 8A#	8g#X	8cc#	<
*v	*v	*	*	*
=65	=65	=65	=65
4D# 4c#	4f##X	8eeL	[ >
.	.	8dd#J	)
4B 4d#	4ryy	8f##L	)
.	.	8a#J	]
8r	8ryy	8g#	<
8An 8d#	8cc#	8ff#X	.
=66	=66	=66	=66
4G# 4f#	4b#X	8aanL	>
.	.	8gg#J	)
*	*v	*v	*
4e 4g#	8b#/L	]
.	8cc#J	<
4r	12gg#L	(
.	12bb#X	(
.	12ccc#J	[
!!LO:LB:g=original
=67	=67	=67
4E	4.fff#	mf >
*clefG2	*	*
4c# 4b 4gg#	.	]
.	8eee	<
4r	8gg#L	(
.	8ggnJ	[
=68	=68	=68
4F#	4.ddd#	>
4e 4b 4ggn	.	)
.	8ccc#	]
4d# [4b	8ff#L	.
.	[8ee#XJ	<
=69	=69	=69
4dn 4g# 4b]	4.ee#] 4.bb	[
4F#	.	.
.	8aa#	.
4d 4g# [4b	8ee#XL	>
.	8gg#J	)
=70	=70	=70
*	*^	*
4c# 4en 4b]	4ryy	8cc#L	)
.	.	8ff#J	]
4F#	4ryy	8g#L	.
.	.	8eeJ	.
[4B [4g#	[4e	8eL	.
.	.	8dd#J	.
=71	=71	=71	=71
4B] 4g#]	4e]	4.cc#	.
*clefF4	*	*	*
4C#	4rc	.	.
.	.	8b	.
[4E [4B	[4c#	8c#L	.
.	.	8a#J	.
=72	=72	=72	=72
4E] 4B]	2c#]	4.g#	.
4GG#	.	.	.
.	.	[8f#	.
4CC#	4G# 4c#	8f#L]	.
.	.	8eJ	.
*	*clefF4	*	*
!!LO:LB:g=original
=73	=73	=73	=73
4FFF# [4FF#	4E [4F# 4A#	4c#	.
4BBB 4FF#]	8D# 8F#]	8BL	.
.	8rAA	[8f#J	.
4CC#	4G# 4c#	8f#L]	.
.	.	8eJ	.
=74	=74	=74	=74
*^	*	*	*
4FFF#	2FF#	4E [4F# 4A#	4c#	.
4BBB	.	4D# 4F#]	4B	.
4rCC	4AA#	4ryy	4E 4F# 4c#	.
*v	*v	*	*	*
=75	=75	=75	=75
4AAn	4D# 4F# 4B	4ryy	.
4GG#	4D# 4B#X	8rf	.
.	.	[8f#	.
4GGn	4E 4cn	8f#L]	.
.	.	8eJ	.
*	*v	*v	*
=76	=76	=76
2.r	2.r	.
=77	=77	=77
4FF#	4E 4F# 4A#X 4c#X	p
4r	4r	.
4r	4r	.
=78	=78	=78
4BBB 4FF#	4D# 4F# 4B	.
4r	4r	.
4r	4r	.
*	*clefG2	*
=79	=79	=79
4BB 4F# 4d#	4b 4ff# 4bb	.
4r	4r	.
4r	4r	.
==	==	==
*-	*-	*-
!!!filter: flipper -a
!!!RDF**dynam: > = dim.
!!!system-decoration: {(*)}
!!!ENC: Bryan Jacob Bell
!!!END: November 2021 to April 2022
!!!PED: M.P. Belaieff
